svgs/sharp-solid/square-u.svg

<svg xmlns="http://www.w3.org/2000/svg" viewBox="0 0 448 512"><!--! Font Awesome Pro 6.6.0 by @fontawesome - https://fontawesome.com License - https://fontawesome.com/license (Commercial License) Copyright 2024 Fonticons, Inc. --><path d="M448 32L0 32 0 480l448 0 0-448zM160 168l0 120c0 35.3 28.7 64 64 64s64-28.7 64-64l0-120 0-24 48 0 0 24 0 120c0 53.6-37.7 98.4-88 109.4l0 2.6-24 0c-61.9 0-112-50.1-112-112l0-120 0-24 48 0 0 24z"/></svg>

<svg xmlns="http://www.w3.org/2000/svg" viewBox="0 0 448 512"><!--! Font Awesome Pro 6.5.2 by @fontawesome - https://fontawesome.com License - https://fontawesome.com/license (Commercial License) Copyright 2024 Fonticons, Inc. --><path d="M448 32H0V480H448V32zM160 168V288c0 35.3 28.7 64 64 64s64-28.7 64-64V168 144h48v24V288c0 61.9-50.1 112-112 112s-112-50.1-112-112V168 144h48v24z"/></svg>
